X:13
T:An Ch\'uilfhionn
T:Ch\'uilfhionn, An
T:Coolin, The
R:slow air
Z:id:hn-slowair-13
M:3/4
L:1/8
Q:1/4=60
K:D
AB/c/ | d2 d2 e>c | d2 F2 DF/A/ | d>c de/f/ ed | d2 c2 dc |
B2 Bc/d/ e/d/c/B/ | A2 FA d>A | c/B/A/G/ FD/F/ E2 | D4 :|
|: A>G | F>E D>E F>G | A>^G A>B c>A | d>c de/f/ ed | d2 c2 dc |
B2 Bc/d/ e/d/c/B/ | A2 FA d>A | c/B/A/G/ FD/F/ E2 | D4 :|

